X:2
T:Capauchen, La
M:6/8
L:1/8
R:Country Dance
B:Samuel, Ann & Peter Thompson - Compleat Collection of 200 Favourite Country Dances, vol. 5 (London, 1788, No. 164, p. 82)
Z:AK/Fiddler's Companion
K:F
f2f fef|g2g gab|a2f f2a|gec ceg|
f2f fef|g2g gab|afa gec|f3F3:|
|:a2a afa|b2b bgb|a2a afa|gec ceg|
a2a afa|b2b bgb|afa geg|f3 F3:|]

